X: 1
T: Punters' Graveyard, The
M: 4/4
L: 1/8
R: reel
K: Bmin
|:B3 c dB ~B2|fgfe dcdB|ABcd c3 B|ABcd cA (3AAA|
B2 Bc dB ~B2|fgfe defg|aA (3AAA c2 cd|edcA B3 A:|
|:BF (3FFF GBdB|Acac bcac|bf ~f2 bfaf|ec (3ccc egfd|
BF (3FFF GBdB|Acac bcac|bf ~f2 bfaf|egfd B3 A:|
